svg/color/glox.svg

<?xml version="1.0" encoding="UTF-8" ?>
<!DOCTYPE svg PUBLIC "-//W3C//DTD SVG 1.1//EN" "http://www.w3.org/Graphics/SVG/1.1/DTD/svg11.dtd">
<svg width="250pt" height="250pt" viewBox="0 0 250 250" version="1.1" xmlns="http://www.w3.org/2000/svg">
<g id="#ffffffff">
<path fill="#ffffff" opacity="1.00" d=" M 0.00 0.00 L 250.00 0.00 L 250.00 250.00 L 0.00 250.00 L 0.00 0.00 M 91.02 20.35 C 55.66 33.56 28.17 65.89 21.18 103.02 C 16.71 126.08 19.11 150.86 29.46 172.06 C 42.67 201.59 69.87 224.46 101.08 232.98 C 119.88 238.12 140.14 238.28 159.03 233.48 C 174.93 229.39 189.89 221.69 202.53 211.21 C 213.65 202.32 222.68 190.95 229.57 178.53 C 230.13 177.48 230.79 176.44 230.97 175.24 C 207.07 151.17 182.87 127.40 158.76 103.54 C 158.79 102.48 157.44 101.89 156.89 101.07 C 148.18 92.70 139.93 83.81 130.93 75.79 C 110.76 95.30 91.43 115.76 71.22 135.23 L 71.17 135.52 C 69.39 136.77 68.31 139.31 66.04 139.63 C 61.28 118.50 67.49 95.27 82.47 79.56 C 98.24 62.44 123.55 54.54 146.13 60.37 C 157.82 48.99 169.27 37.35 180.79 25.80 L 180.97 24.99 C 170.32 19.05 158.05 15.75 145.97 13.97 C 127.48 11.80 108.41 13.52 91.02 20.35 Z" />
<path fill="#ffffff" opacity="1.00" d=" M 94.62 176.11 C 106.83 164.20 118.64 151.85 130.97 140.09 C 132.20 141.04 133.33 142.11 134.54 143.09 C 146.54 154.84 158.21 166.95 170.02 178.90 C 158.17 187.33 143.61 191.99 129.05 191.48 C 115.79 191.17 102.78 186.57 91.97 178.93 C 92.84 177.98 93.72 177.03 94.62 176.11 Z" />
</g>
<g id="#0187f6ff">
<path fill="#0187f6" opacity="1.00" d=" M 91.02 20.35 C 108.41 13.52 127.48 11.80 145.97 13.97 C 158.05 15.75 170.32 19.05 180.97 24.99 L 180.79 25.80 C 169.27 37.35 157.82 48.99 146.13 60.37 C 123.55 54.54 98.24 62.44 82.47 79.56 C 67.49 95.27 61.28 118.50 66.04 139.63 C 67.12 145.67 69.54 151.39 72.36 156.81 C 69.68 159.65 65.60 159.76 62.14 161.02 C 51.27 164.77 40.26 168.09 29.46 172.06 C 19.11 150.86 16.71 126.08 21.18 103.02 C 28.17 65.89 55.66 33.56 91.02 20.35 Z" />
</g>
<g id="#c5c5c5ff">
<path fill="#c5c5c5" opacity="1.00" d=" M 71.22 135.23 C 91.43 115.76 110.76 95.30 130.93 75.79 C 139.93 83.81 148.18 92.70 156.89 101.07 C 157.44 101.89 158.79 102.48 158.76 103.54 C 157.81 104.26 156.76 104.93 156.26 106.07 C 151.63 114.04 146.93 121.98 141.95 129.75 C 139.40 134.15 136.42 138.33 134.54 143.09 C 133.33 142.11 132.20 141.04 130.97 140.09 C 118.64 151.85 106.83 164.20 94.62 176.11 C 86.65 168.87 79.62 160.31 75.67 150.19 C 73.62 145.48 72.41 140.48 71.17 135.52 L 71.22 135.23 Z" />
</g>
<g id="#a3a3a3ff">
<path fill="#a3a3a3" opacity="1.00" d=" M 156.26 106.07 C 156.76 104.93 157.81 104.26 158.76 103.54 C 182.87 127.40 207.07 151.17 230.97 175.24 C 230.79 176.44 230.13 177.48 229.57 178.53 C 222.68 190.95 213.65 202.32 202.53 211.21 C 191.66 200.47 180.95 189.57 170.02 178.90 C 158.21 166.95 146.54 154.84 134.54 143.09 C 136.42 138.33 139.40 134.15 141.95 129.75 C 146.93 121.98 151.63 114.04 156.26 106.07 Z" />
<path fill="#a3a3a3" opacity="1.00" d=" M 66.04 139.63 C 68.31 139.31 69.39 136.77 71.17 135.52 C 72.41 140.48 73.62 145.48 75.67 150.19 C 79.62 160.31 86.65 168.87 94.62 176.11 C 93.72 177.03 92.84 177.98 91.97 178.93 C 83.82 173.25 77.14 165.51 72.36 156.81 C 69.54 151.39 67.12 145.67 66.04 139.63 Z" />
</g>
<g id="#006ceeff">
<path fill="#006cee" opacity="1.00" d=" M 62.14 161.02 C 65.60 159.76 69.68 159.65 72.36 156.81 C 77.14 165.51 83.82 173.25 91.97 178.93 C 102.78 186.57 115.79 191.17 129.05 191.48 C 143.61 191.99 158.17 187.33 170.02 178.90 C 180.95 189.57 191.66 200.47 202.53 211.21 C 189.89 221.69 174.93 229.39 159.03 233.48 C 140.14 238.28 119.88 238.12 101.08 232.98 C 69.87 224.46 42.67 201.59 29.46 172.06 C 40.26 168.09 51.27 164.77 62.14 161.02 Z" />
</g>
</svg>

<?xml version="1.0" encoding="utf-8"?>
<!-- Generator: Adobe Illustrator 26.0.3, SVG Export Plug-In . SVG Version: 6.00 Build 0)  -->
<svg version="1.1" id="Layer_1" xmlns="http://www.w3.org/2000/svg" xmlns:xlink="http://www.w3.org/1999/xlink" x="0px" y="0px"
	 viewBox="0 0 250 250" style="enable-background:new 0 0 250 250;" xml:space="preserve">
<style type="text/css">
	.st0{fill:#FFFFFF;}
	.st1{fill:#0187F6;}
	.st2{fill:#C5C5C5;}
	.st3{fill:#A3A3A3;}
	.st4{fill:#006CEE;}
</style>
<g id="_x23_ffffffff">
	<path class="st0" d="M94.6,176.1c12.2-11.9,24-24.3,36.3-36c1.2,0.9,2.4,2,3.6,3c12,11.8,23.7,23.9,35.5,35.8
		c-11.9,8.4-26.4,13.1-41,12.6c-13.3-0.3-26.3-4.9-37.1-12.6C92.8,178,93.7,177,94.6,176.1z"/>
</g>
<g id="_x23_0187f6ff">
	<path class="st1" d="M91,20.4c17.4-6.8,36.5-8.6,55-6.4c12.1,1.8,24.4,5.1,35,11l-0.2,0.8c-11.5,11.5-23,23.2-34.7,34.6
		c-22.6-5.8-47.9,2.1-63.7,19.2c-15,15.7-21.2,38.9-16.4,60.1c1.1,6,3.5,11.8,6.3,17.2c-2.7,2.8-6.8,2.9-10.2,4.2
		c-10.9,3.8-21.9,7.1-32.7,11c-10.3-21.2-12.8-46-8.3-69C28.2,65.9,55.7,33.6,91,20.4z"/>
</g>
<g id="_x23_c5c5c5ff">
	<path class="st2" d="M71.2,135.2c20.2-19.5,39.5-39.9,59.7-59.4c9,8,17.2,16.9,26,25.3c0.6,0.8,1.9,1.4,1.9,2.5
		c-0.9,0.7-2,1.4-2.5,2.5c-4.6,8-9.3,15.9-14.3,23.7c-2.6,4.4-5.5,8.6-7.4,13.3c-1.2-1-2.3-2.1-3.6-3c-12.3,11.8-24.1,24.1-36.3,36
		c-8-7.2-15-15.8-19-25.9c-2-4.7-3.3-9.7-4.5-14.7L71.2,135.2z"/>
</g>
<g id="_x23_a3a3a3ff">
	<path class="st3" d="M156.3,106.1c0.5-1.1,1.6-1.8,2.5-2.5c24.1,23.9,48.3,47.6,72.2,71.7c-0.2,1.2-0.8,2.2-1.4,3.3
		c-6.9,12.4-15.9,23.8-27,32.7c-10.9-10.7-21.6-21.6-32.5-32.3c-11.8-11.9-23.5-24.1-35.5-35.8c1.9-4.8,4.9-8.9,7.4-13.3
		C146.9,122,151.6,114,156.3,106.1z"/>
	<path class="st3" d="M66,139.6c2.3-0.3,3.3-2.9,5.1-4.1c1.2,5,2.5,10,4.5,14.7c4,10.1,11,18.7,19,25.9c-0.9,0.9-1.8,1.9-2.7,2.8
		c-8.2-5.7-14.8-13.4-19.6-22.1C69.5,151.4,67.1,145.7,66,139.6z"/>
</g>
<g id="_x23_006ceeff">
	<path class="st4" d="M62.1,161c3.5-1.3,7.5-1.4,10.2-4.2c4.8,8.7,11.5,16.4,19.6,22.1c10.8,7.6,23.8,12.2,37.1,12.6
		c14.6,0.5,29.1-4.1,41-12.6c10.9,10.7,21.6,21.6,32.5,32.3c-12.6,10.5-27.6,18.2-43.5,22.3c-18.9,4.8-39.2,4.6-57.9-0.5
		c-31.2-8.5-58.4-31.4-71.6-60.9C40.3,168.1,51.3,164.8,62.1,161z"/>
</g>
</svg>
